X:1
T:Title
%%score { ( 1 3 ) | ( 2 4 ) }
L:1/8
M:6/8
K:F
V:1 treble nm="Grand Piano"
V:3 treble 
V:2 bass 
V:4 bass 
V:1
 z3 z2[Q:1/4=90] C | [CA]2 [CA] [DB]2 [CE] | [B,G]2 F[K:bass] [F,A,C]2 C | D2 F E2 B | %4
[M:5/8] [EB]-[EB]- [EB]3 |[M:1/8] [DB] |[M:3/4] [CA]2 [B,G] [DB]2 [CA] | [_Ec]2 B [F,DF]2 G | %8
 A2 C G2 F |[M:5/8] [A,F]-[A,F]- [A,F]3 |[M:1/8] [CA] |[M:3/4] [Ac]2 z .[Bd]3 | [GB]2 z .A3 | %13
 B2 z .[Ec]3 |[M:5/8] [EGBc]-[EGBc]- [EGBc]3 |[M:1/8] c |[M:3/4] [Ac]2 z2 z2 | %17
 [c_e]2 .[Bd]2 D[DGd] | [Ac]2 z .[GB]3 |[M:5/8] [CFA]-[CFA]- [CFA]3 |[M:1/8] c |[M:3/4] c6 | c6 | %23
 [Fd]2 [Fd]d ef |[M:5/8] [Ge]-[Ge]- [Ge]3 |[M:1/8] [Be] |[M:3/4] [Af]2 [Ac][Ac] B[D^FA] | %27
 [DG]2 [DGB][Gd] z [D_Ad] | [FAc]2 [F_A=B] [CG_B]2 [B,CE] |[M:5/8] [A,CF]-[A,CF]- [A,CF]3 |] %30
V:2
 z3 z2 A, | .[F,,F,]3 .[F,,F,]3 | [F,,F,]2 A, F,,2 A, | [B,,F,B,]2 D [C,G,C]2 C | %4
[M:5/8] [C,G,C]-[C,G,C]- [C,G,C]3 |[M:1/8] z |[M:3/4] [F,,F,]2 z .[F,,F,]3 | [A,,F,]2 D B,,2 D | %8
 [C,F,C]2 A, [C,E,G,B,]2 A, |[M:5/8] [F,,C,F,]-[F,,C,F,]- [F,,C,F,]3 |[M:1/8] z | %11
[M:3/4] [F,,F,]A, [A,CA][F,,F,] B,[B,DE] | [F,,F,]A, [A,CF][F,,F,] A,A, | B,,B, B,C, E,[E,G,B,E] | %14
[M:5/8] G,3 z2 |[M:1/8][K:treble] B |[M:3/4][K:bass] [F,,F,]A, A,F, B,A, | F,A, B,B,, B,B, | %18
 F,A, A,C, G,[F,A,CF] |[M:5/8] [F,,F,]-[F,,F,]- [F,,F,]3 |[M:1/8] C |[M:3/4] CE C, C,2 B, | %22
 A,C F, F,2 [E,A,] | z2 z[K:treble] =B, z2 |[M:5/8][K:bass] C-C- C3 |[M:1/8] [G,C] | %26
[M:3/4] [F,C]2 .[F,C]2 GD, | B,,2 B,,[B,,B,] z B,, | C,2 D, C,2 C, |[M:5/8] F,-F,- F,3 |] %30
V:3
 x6 | x6 | x3[K:bass] x3 | x6 |[M:5/8] x5 |[M:1/8] x |[M:3/4] x6 | x6 | x6 |[M:5/8] x5 |[M:1/8] x | %11
[M:3/4] z C .c2 Dc | z C AC C[CA] | DD .[DFd]2 [G,B,][GBc] |[M:5/8] z z2 G,2 |[M:1/8] x | %16
[M:3/4] z C [CGB] [Bd]2 [Ac] | z2 z .[Fd]3 | z C .[CA]2 B,A |[M:5/8] x5 |[M:1/8] x | %21
[M:3/4] z2 [EG] [EB]2 c | z2 [A,F] [FA]2 [G^c] | x6 |[M:5/8] z E,G, B,2 |[M:1/8] x |[M:3/4] x6 | %27
 x6 | x6 |[M:5/8] x5 |] %30
V:4
 x6 | x6 | x6 | x6 |[M:5/8] x5 |[M:1/8] x |[M:3/4] x6 | x6 | x6 |[M:5/8] x5 |[M:1/8] x | %11
[M:3/4] x6 | x6 | x6 |[M:5/8] [C,E,C]-[C,E,C]- [C,E,C]3 |[M:1/8][K:treble] x |[M:3/4][K:bass] x6 | %17
 x6 | x6 |[M:5/8] x5 |[M:1/8] x |[M:3/4] x6 | x6 | [D,A,]2 [D,A,][K:treble][G,G]- [G,CG][G,DG] | %24
[M:5/8][K:bass] C, z z z2 |[M:1/8] x |[M:3/4] z2 z .[D,D]3 | x6 | x6 |[M:5/8] x5 |] %30

